X: 181
T:The Independence Hornpipe
M:2/2
L:1/8
S:Tom Doorley (Dan
R:Hornpipe
Z:Robert Greenway,  25/10/1999
K:G
Bc|:dgfa (3gab gd|(3efg dc (3Bcd BG|FGAB cBcg|(3aba (3gfe d2Bc|!
dgfa (3gab gd|(3efg dc (3Bcd bg|fedB cAFA|1 G2 (3AGF G2Bc:|2 G2 (3AGF G=
4|!
|:(3cdc (3BAG (3FGA (3fed|(3BDG (3Bdg (3bag (3fed|(3cdc (3BAG (3FGA (3f=
ed|(3BDG
(3Bdg (3bag (3fed|!
|~e3 (3ceg (3c'ga (3gfe|~d3 (3Bdg (3bag (3fed|(3cdc (3BAG (3fed (3cBA|1=
G2 (3AGF
G4:|2 G2 (3AGF G2||!
<end>
<start>
